X:1
T: Hornpipe
P:Kerr's 2nd #349
R:Reel
Q: 232
K:D
M:4/4
L:1/8
|:fg|af dA Bd cB|Ad Ad Bd cB|Ad fa gf eg|fe df e2 fg|
af dA Bd cB|Ad Ad Bd cB|Ad fa ge ce|d2 f2 d2:|
|:cB|Ac ec eg fe|df a^g ba fd|gf eg fe df|ec dB A2 cB|
Ac ec eg fe|df a^g ba fd|gf eg fe df|ea ^gb a2:|
